X:5679
T:Gan ainm
R:waltz
S:
H:
N:
D:
Z:Adrian Scahill
M:3/4
L:1/8
K:D
D3E FG|A3F Ad|f2e2c2|d4dc|B2GBdB|(3ABA FAdf|e2cABc|1d2fdAF:|2d4A2:|3d2fdAF:|4d3DEF||\
G2BGBG|(3BcB GBdB|(3ABA FAde|(3fgf dfa2|bagfgf|e>f edcB|1A>B AGFE|F2AF (3DEF:|2 (3ABA ^GABc|d3 DEF:||
